source/icons/loop-square.svg

<svg xmlns="http://www.w3.org/2000/svg" width="8" height="8" viewBox="0 0 8 8">
  <path d="M1 0v2h1v-1h4v2h-1l1.5 2.5 1.5-2.5h-1v-3h-6zm.5 2.5l-1.5 2.5h1v3h6v-2h-1v1h-4v-2h1l-1.5-2.5z" />
</svg>

<svg xmlns="http://www.w3.org/2000/svg" width="8" height="8" viewBox="0 0 8 8"><path d="M1 0v2h1V1h4v2H5l1.5 2.5L8 3H7V0H1zm.5 2.5L0 5h1v3h6V6H6v1H2V5h1L1.5 2.5z"/></svg>
